X: 102
M: C|
L: 1/16
K: D
d3e |\
(gf).e.d (fe).d.c (ed).c.B A3G | (GF)ED g3f Tf4 e2(de) |\
(gf).e.d (fe).d.c (ed).c.B .A2.G2 | Fbag fedc d2dd d2 :|
|: z2 |\
(ag)(fg) .a2.a2 (a2d'2)(d'2c'2) | (c'2b2)(b2a2) a3f d4 |\
(ag)(fg) .a2.a2 .a2d'2 defg | f4 Te4 d8 :|
[|\
[| (a3g)(f3g) .a2d'2a2d'2 | (c'b)(ag) f2g2 afaf Td4 |\
(a3g)f3g .a2.a2 (abc')d' d'(afd) | f4 Te4 d4 |]


